src/images/common/weight/weight.svg

<svg width="24" height="30" viewBox="0 0 24 30" fill="none" xmlns="http://www.w3.org/2000/svg">
<path d="M11.7261 11.7094C8.13633 11.7094 5.23035 14.6154 5.23035 18.2051C5.23035 21.7949 8.13633 24.7009 11.7261 24.7009C15.3158 24.7009 18.2218 21.7949 18.2218 18.2051C18.3073 14.6154 15.3158 11.7094 11.7261 11.7094ZM12.4098 23.3333V23.0769C12.4098 22.735 12.1534 22.3932 11.7261 22.3932C11.2987 22.3932 11.1278 22.735 11.1278 23.0769V23.3333C8.82009 22.9915 6.93975 21.1966 6.68334 18.8034H6.93975C7.28163 18.8034 7.62351 18.547 7.62351 18.1197C7.62351 17.7778 7.3671 17.4359 6.93975 17.4359H6.59787C6.93975 15.0427 8.73462 13.2479 11.1278 12.906V13.1624C11.1278 13.5043 11.3842 13.8462 11.8115 13.8462C12.2389 13.8462 12.4953 13.5897 12.4953 13.1624V12.906C14.803 13.2479 16.5979 15.0427 16.9397 17.3504H16.6833C16.3415 17.3504 15.9996 17.6068 15.9996 18.0342C15.9996 18.3761 16.256 18.7179 16.6833 18.7179H16.9397C16.5979 21.1966 14.803 23.0769 12.4098 23.3333Z" fill="#000F27"/>
<path d="M13.6919 15.2991L12.6662 16.3248C11.8115 15.8974 10.8714 16.0684 10.1876 16.6667C9.33291 17.5214 9.33291 18.8034 10.1876 19.6581C11.0423 20.5128 12.3244 20.5128 13.1791 19.6581C13.6064 19.2308 13.7774 18.7179 13.7774 18.1197C13.7774 17.7778 13.6919 17.4359 13.5209 17.1795L14.5466 16.1538C14.803 15.8974 14.803 15.4701 14.5466 15.2137C14.3756 15.0427 13.9483 15.0427 13.6919 15.2991ZM12.3244 18.7179C11.9825 18.9744 11.4697 18.9744 11.2133 18.7179C10.8714 18.3761 10.8714 17.8632 11.1278 17.5214C11.3842 17.1795 11.9825 17.1795 12.3244 17.4359C12.6662 17.6923 12.7517 18.3761 12.3244 18.7179Z" fill="#000F27"/>
<path d="M19.5893 28.6325H17.1107C22.8372 25.7265 25.1449 18.7179 22.2389 12.906C20.3586 9.1453 16.5979 6.75214 12.4098 6.49573V3.93162H19.5893C19.9312 3.93162 20.2731 3.67521 20.2731 3.24786V0.683761C20.2731 0.34188 20.0167 0 19.6748 0H3.9483C3.60641 0 3.35 0.25641 3.35 0.683761V3.24786C3.35 3.58974 3.60641 3.93162 4.03377 3.93162H11.1278V6.5812C4.63206 6.83761 -0.325209 12.3077 0.0166711 18.8034C0.187611 22.9915 2.66624 26.7521 6.42693 28.6325H3.9483C3.60641 28.6325 3.26453 28.8889 3.26453 29.3162C3.26453 29.6581 3.52094 30 3.9483 30H19.5893C19.9312 30 20.2731 29.7436 20.2731 29.3162C20.1876 28.8889 19.9312 28.6325 19.5893 28.6325ZM4.63206 1.28205H18.9056V2.5641H4.63206V1.28205ZM1.38419 18.2051C1.38419 12.4786 6.08505 7.77778 11.8115 7.86325C17.538 7.94872 22.2389 12.5641 22.1534 18.2906C22.1534 24.0171 17.4526 28.6325 11.7261 28.6325C5.99958 28.6325 1.38419 23.9316 1.38419 18.2051Z" fill="#000F27"/>
</svg>

<svg width="24" height="30" fill="none" xmlns="http://www.w3.org/2000/svg"><path d="M11.726 11.71a6.493 6.493 0 00-6.496 6.495 6.493 6.493 0 006.496 6.496 6.493 6.493 0 006.496-6.496c.085-3.59-2.906-6.496-6.496-6.496zm.684 11.623v-.256a.674.674 0 00-.684-.684c-.427 0-.598.342-.598.684v.256c-2.308-.341-4.188-2.136-4.445-4.53h.257a.674.674 0 00.684-.683.674.674 0 00-.684-.684h-.342c.342-2.393 2.137-4.188 4.53-4.53v.256c0 .342.256.684.684.684.427 0 .683-.256.683-.684v-.256a5.258 5.258 0 014.445 4.444h-.257a.674.674 0 00-.683.684c0 .342.256.684.683.684h.257c-.342 2.479-2.137 4.359-4.53 4.615z" fill="#000F27"/><path d="M13.692 15.3l-1.026 1.025c-.854-.428-1.795-.257-2.478.342-.855.854-.855 2.136 0 2.991.854.855 2.136.855 2.991 0 .427-.427.598-.94.598-1.538 0-.342-.085-.684-.256-.94l1.026-1.026a.67.67 0 000-.94c-.171-.171-.599-.171-.855.085zm-1.368 3.418c-.341.256-.854.256-1.11 0a.915.915 0 01-.086-1.197c.256-.341.854-.341 1.196-.085.342.256.428.94 0 1.282z" fill="#000F27"/><path d="M19.59 28.633h-2.48c5.727-2.906 8.035-9.915 5.129-15.727-1.88-3.76-5.641-6.154-9.83-6.41V3.932h7.18a.674.674 0 00.684-.684V.684c0-.342-.256-.684-.598-.684H3.948c-.342 0-.598.256-.598.684v2.564c0 .342.256.684.684.684h7.094v2.65C4.632 6.837-.325 12.307.017 18.802c.17 4.188 2.65 7.95 6.41 9.83H3.948a.674.674 0 00-.683.683c0 .342.256.684.683.684H19.59a.674.674 0 00.684-.684c-.085-.427-.342-.683-.684-.683zM4.631 1.282h14.274v1.281H4.632V1.282zM1.384 18.204c0-5.726 4.701-10.427 10.428-10.342 5.726.086 10.427 4.701 10.341 10.428 0 5.726-4.7 10.341-10.427 10.341-5.726 0-10.342-4.7-10.342-10.427z" fill="#000F27"/></svg>
